X: 1
T: Nathaniel Gow's Lament for the Death of His Brother
%date: 1792
B: Gow Collection v.3 #11
N: arr. Elke Baker
R: lament
C: Nathaniel Gow (1763-1831)
S: printed page in Concord Slow Scottish Session collection
Z: 2015 John Chambers <jc:trillian.mit.edu>
O: Scotland
M: 6/8
L: 1/8
K: Am
A/B/ |\
"Am"c>BA "E7"eBd | "Am"cAA A2A/B/ | "Am"cBA "C"e^fg | "G"BGG G2A/B/ |\
"Am"cBA "E7"eBd | "Am"cea "E7"e2d | "Am"c>BA "E7"EA^G | "Am"AAA A :|
e |\
"Am"a^ga "Em"e=g/f/e/d/ | "Am"cAA A2A/B/ | "Am"cBA "C"e^fg | "G"BGG G2e |\
"Am"a^ga "Em"e=g/f/e/d/ | "Am"cAA Aed | "Am"c>BA "E7"EA^G | "Am"AAA A ||
e |\
"Am"a^ga "Em"e=g/f/e/d/ | "Am"cAA A2A/B/ | "Am"cBA "C"e^fg | "G"BGG G2e |\
"Am"aeg "Bdim"fdB | "Am"ecA "E"B^GE | "Am"ABc "E7"Be/d/c/B/ | "Am"cA"D"A "Am"A2 |]
